src/images/svg/api-logo.svg

<svg width="40" height="40" viewBox="0 0 40 40" fill="none" xmlns="http://www.w3.org/2000/svg">
<path d="M0 7.5C0 3.35786 3.35786 0 7.5 0H32.5C36.6421 0 40 3.35786 40 7.5V32.5C40 36.6421 36.6421 40 32.5 40H7.5C3.35786 40 0 36.6421 0 32.5V7.5Z" fill="#0E0E0E"/>
<path d="M7.11728 15.6958L10.413 20.0001L5.13037 24.3045H10.4695C11.2262 24.3046 11.9608 24.0463 12.553 23.5753C13.1453 23.1043 13.5604 22.4465 13.7306 21.7092L14.1726 19.7943C14.2859 19.3038 14.287 18.7941 14.1758 18.3031C14.0647 17.8121 13.8442 17.3525 13.5308 16.9585C13.2173 16.5646 12.8191 16.2465 12.3656 16.0278C11.9121 15.8092 11.4152 15.6957 10.9118 15.6958H7.11728Z" fill="url(#paint0_linear_7468_26739)"/>
<path d="M10.413 20L8.06515 24.3043H5.13037L10.413 20Z" fill="#CC2E3D"/>
<path d="M30.713 16.1983C30.9779 16.4032 31.1747 16.6833 31.2777 17.0019C31.3971 17.4163 31.4106 17.8541 31.3171 18.2751C31.2487 18.7234 31.0904 19.1533 30.8515 19.5388C30.6414 19.8654 30.3637 20.1432 30.0371 20.3533C29.7039 20.561 29.3361 20.7072 28.9512 20.7849C28.5273 20.8715 28.0956 20.9142 27.663 20.9125H26.2771L25.688 24.2625H23.7877L24.6632 19.3013H27.8245C27.9927 19.3016 28.1605 19.2852 28.3254 19.2524C28.4848 19.2223 28.6383 19.1669 28.7801 19.0882C28.9217 19.0102 29.0444 18.9023 29.1398 18.7719C29.2473 18.6228 29.3176 18.4501 29.3448 18.2683C29.3914 18.1045 29.3772 17.9294 29.3049 17.7752C29.2326 17.6211 29.1069 17.4983 28.9512 17.4295C28.7928 17.3542 28.6222 17.3083 28.4476 17.2937C28.2636 17.2735 28.0788 17.2631 27.8938 17.2625H25.0229L25.3066 15.6581H28.5046C28.9221 15.6555 29.3387 15.696 29.7479 15.7789C30.0968 15.8454 30.4264 15.9887 30.713 16.1983Z" fill="white"/>
<path fill-rule="evenodd" clip-rule="evenodd" d="M19.2676 15.6581L14.9131 24.2666H16.9492L17.9265 22.2197H20.8191L21.1801 24.2666H22.9596L21.4394 15.6581H19.2676ZM18.6472 20.6288L20.0168 17.6928L20.5354 20.6288H18.6472Z" fill="white"/>
<path d="M32.8292 15.6581L31.2886 24.2666H33.1916L34.7322 15.6581H32.8292Z" fill="white"/>
<defs>
<linearGradient id="paint0_linear_7468_26739" x1="10.8977" y1="14.2125" x2="9.18298" y2="25.0285" gradientUnits="userSpaceOnUse">
<stop stop-color="#FF6444"/>
<stop offset="1" stop-color="#FF444F"/>
</linearGradient>
</defs>
</svg>

<svg width="40" height="40" fill="none" xmlns="http://www.w3.org/2000/svg"><path d="M0 7.5A7.5 7.5 0 0 1 7.5 0h25A7.5 7.5 0 0 1 40 7.5v25a7.5 7.5 0 0 1-7.5 7.5h-25A7.5 7.5 0 0 1 0 32.5v-25Z" fill="#0E0E0E"/><path d="M7.117 15.696 10.413 20 5.13 24.305h5.34a3.349 3.349 0 0 0 3.26-2.596l.443-1.915a3.344 3.344 0 0 0-3.261-4.098H7.117Z" fill="url(#a)"/><path d="m10.413 20-2.348 4.304H5.13L10.413 20Z" fill="#CC2E3D"/><path d="M30.713 16.198c.265.205.462.485.565.804.12.414.133.852.04 1.273a3.361 3.361 0 0 1-.466 1.264c-.21.326-.488.604-.815.814a3.28 3.28 0 0 1-1.086.432c-.424.087-.855.13-1.288.128h-1.386l-.589 3.35h-1.9l.875-4.962h3.162c.168 0 .335-.016.5-.049.16-.03.313-.085.455-.164a1.108 1.108 0 0 0 .565-.82.706.706 0 0 0-.394-.838 1.455 1.455 0 0 0-.503-.136 5.23 5.23 0 0 0-.554-.032h-2.871l.284-1.604h3.198c.417-.002.834.038 1.243.12.349.067.678.21.965.42Z" fill="#fff"/><path fill-rule="evenodd" clip-rule="evenodd" d="m19.268 15.658-4.355 8.609h2.036l.977-2.047h2.893l.361 2.047h1.78l-1.52-8.609h-2.172Zm-.62 4.97 1.369-2.935.518 2.936h-1.888Z" fill="#fff"/><path d="m32.83 15.658-1.541 8.609h1.903l1.54-8.609H32.83Z" fill="#fff"/><defs><linearGradient id="a" x1="10.898" y1="14.213" x2="9.183" y2="25.029" gradientUnits="userSpaceOnUse"><stop stop-color="#FF6444"/><stop offset="1" stop-color="#FF444F"/></linearGradient></defs></svg>
